X:1
T:Title
L:1/8
M:4/4
I:linebreak $
K:A
V:1 treble nm="Voice"
V:1
"Bm" FB B2"A" cfec | cfec"Bm7" BAFE | FB B2"A7" caaf | gfeg"Bm" f3 e |"Bm7" fafe"A" cfec | %5
"Bm7" B3 A defg |"A" af f2 fecB |1 cfec"Bm7" B3 A :|2 cfec"Bm" B3 c |:"Bm7" dB B2 aBgB | %10
 fB B2"A" cBAc |"Bm7" dB B2"A7" abaf | gfeg"Bm" f3 e |"Bm" fafe"A" cfec |"Bm7" B3 A defg | %15
 af f2 fecB |1"A" cfec"Bm" B3 c :|2"A" cfec"Bm" B3 A |] %18
